X:80
T:
S:Uppt. efter Teresia Pettersson, Myrungs i Linde.
M:3/4
L:1/4
K:G
D|G> G G/ G/|B G B|d> d d|B2 G|
w:1.~Kumm, läi-lä nät-tä fröi-ken, u räkk mi däin hand u
A> A A|(A G) A|B3|G z D|G> G G|B G B|
w:fölg mi äut-äi_ dä gröi-nä! Ja skäŋ-kar di hund-rä-dä
d2 d|B2 G|A> A A|(A G) A|B3|G z c|
w:kä-leiks-band; mä kran-sar ja vi_ di kröi-nä. Män
e2 c|e2 e|d2 B|d d d|c2 F|A c e|
w:um ein kyss däu mi för-un-nar, äi bärg u da-lar ja
(B d) G|B d d|A2 B|G2|]
w:de_ för-kun-nar äi gröi-nen skoug.
